X:29
T:Back of the Change House, The
R:Reel
B:The Athole Collection
M:C|
L:1/8
K:D
B|AFAf edBd|AFAB dedB|AFAf edBg|f/g/a e>c d2d:|
g|fedf edBg|fefg agag|fdgf edBg|f/g/a e>c d2 dg|fedf edBg|
fefg abag|fdgf edBg|afge dedB||

